!!!COM: Macque, Giovanni de
!!!CDT:
!!!PTL: Il secondo libro de madrigali a cinque voci
!!!PPP: Venice
!!!PPR: Vincenzi & Amadino
!!!PDT: 1587
!!!RISM: M 89
!!!rime: 333
!!!OTL:	Gelo ha Madonna il seno, Rime 333
!!!AGN: Madrigal
!!!SCT: Trm0333e
!!!SCA: Trm0333e
!!!voices: 5
**kern	**text	**kern	**text	**kern	**text	**kern	**text	**kern	**text
*part5	*part5	*part4	*part4	*part3	*part3	*part2	*part2	*part1	*part1
*staff5	*staff5	*staff4	*staff4	*staff3	*staff3	*staff2	*staff2	*staff1	*staff1
*I"Basso	*	*I"Tenore	*	*I"Alto	*	*I"Quinto	*	*I"Canto	*
*I'B	*	*I'T	*	*I'A	*	*I'Q	*	*I'C	*
*oclefF3	*	*oclefC3	*	*oclefC2	*	*oclefG2	*	*oclefG2	*

*clefF4	*	*clefGv2	*	*clefG2	*	*clefG2	*	*clefG2	*
*k[b-]	*	*k[b-]	*	*k[b-]	*	*k[b-]	*	*k[b-]	*
*omet(C)	*	*omet(C)	*	*omet(C)	*	*omet(C)	*	*omet(C)	*
*M4/2	*	*M4/2	*	*M4/2	*	*M4/2	*	*M4/2	*
=1	=1	=1	=1	=1	=1	=1	=1	=1	=1
0r	.	1r	.	2d	Ge-	2dd	Ge-	1r	.
.	.	.	.	4.e	-lo ha	4.cc	-lo ha	.	.
.	.	.	.	8e	Ma-	8cc	Ma-	.	.
.	.	2r	.	4f#X	-don-	4a	-don-	2r	.
.	.	.	.	4g	-na il	4b-y	-na il	.	.
.	.	2d	Ge-	2f#X	se-	2a	se-	2dd	Ge-
=2	=2	=2	=2	=2	=2	=2	=2	=2	=2
1r	.	4.e	-lo ha	2g	-no,	2g	-no,	4.cc	-lo ha
.	.	8e	Ma-	.	.	.	.	8cc	Ma-
.	.	4f#X	-don-	2r	.	2r	.	4a	-don-
.	.	4g	-na il	.	.	.	.	4b-y	-na il
2d	Ge-	2f#X	se-	4r	.	1r	.	2a	se-
.	.	.	.	4d	<Ge-	.	.	.	.
4.c	-lo ha	2g	-no,	4.e	-lo ha	.	.	2cc	-no
8c	Ma-	.	.	8e	Ma-	.	.	.	.
=3	=3	=3	=3	=3	=3	=3	=3	=3	=3
4A	-don-	4r	.	4f#i	-don-	4r	.	0r	.
4B-y	-na il	4d	<Ge-	4g	-na il	4dd	<Ge-	.	.
2A	se-	4.e	-lo ha	4a	se-	4.cc	-lo ha	.	.
.	.	.	.	4a	-no>	.	.	.	.
.	.	8e	Ma-	.	.	8cc	Ma-	.	.
1D	-no,	4f#X	-don-	2r	.	4a	-don-	.	.
.	.	4g	-na il	.	.	4b-y	-na il	.	.
.	.	2f#X	se-	2r	.	2a	se-	.	.
=4	=4	=4	=4	=4	=4	=4	=4	=4	=4
0r	.	1g	-no>	2g	e	2bnX	-no>	2r	.
.	.	.	.	2.b-y	fiam-	4r	.	2dd	e
.	.	.	.	.	.	4g	e	.	.
.	.	1r	.	.	.	4dd	fiam-	2.ff	fiam-
.	.	.	.	8aL	.	8ccL	.	.	.
.	.	.	.	8gJ	.	8b-iJ	.	.	.
.	.	.	.	4f	.	4a	.	.	.
.	.	.	.	4g	-m'il	4bnX	-m'il	8eeL	.
.	.	.	.	.	.	.	.	8ddJ	.
=5	=5	=5	=5	=5	=5	=5	=5	=5	=5
0r	.	1r	.	4a	vol-	2f	vol-	4cc	.
.	.	.	.	2b-y	.	.	.	4dd	-m'il
.	.	.	.	.	.	2f	-to,	2cc	vol-
.	.	.	.	4a	.	.	.	.	.
.	.	4r	.	2b-y	-to,	2r	.	1dd	-to;
.	.	4G	e	.	.	.	.	.	.
.	.	[2g	fiam-	4r	.	2b-X	e	.	.
.	.	.	.	4g	e	.	.	.	.
=6	=6	=6	=6	=6	=6	=6	=6	=6	=6
0r	.	4g]	.	4b-y	fiam-	2.dd	fiam-	1r	.
.	.	8fL	.	8aL	.	.	.	.	.
.	.	8eJ	.	8gJ	.	.	.	.	.
.	.	4d	.	4f	.	.	.	.	.
.	.	4e	-m'il	4g	-m'il	8ccL	.	.	.
.	.	.	.	.	.	8b-yJ	.	.	.
.	.	4f#X	vol-	2d	vol-	4a	.	2r	.
.	.	2g	.	.	.	4b-y	-m'il	.	.
.	.	.	.	2d	-to;	2a	vol-	[2dd	Io
.	.	4f#X	.	.	.	.	.	.	.
=7	=7	=7	=7	=7	=7	=7	=7	=7	=7
2r	.	2g	-to;	2r	.	2bnX	-to;	2dd]	.
2G	Io	2d	Io	2g	Io	2b-i	Io	1gg	son
1c	son	1e-X	son	[1g	son	1cc	son	.	.
.	.	.	.	.	.	.	.	[2cc	ghiac-
=8	=8	=8	=8	=8	=8	=8	=8	=8	=8
1G	ghiac-	1d	ghiac-	2g]	.	1dd	ghiac-	2cc]	.
.	.	.	.	2.g	ghiac-	.	.	1b-y	-cio
2E	-cio	2G	-cio	.	.	2.cc	-cio	.	.
.	.	.	.	4g	-cio	.	.	.	.
2F	di	2A	di	2f	di	.	.	2a	di
.	.	.	.	.	.	4cc	di	.	.
=9	=9	=9	=9	=9	=9	=9	=9	=9	=9
1BB-y	fo-	1B-y	fo-	1f	fo-	1b-y	fo-	1dd	fo-
1F	-re	1c	-re	4f	-re	1a	-re	4cc	-re
.	.	.	.	4a	E 'l	.	.	4cc	E 'l
.	.	.	.	8fL	fo-	.	.	8aL	fo-
.	.	.	.	8g	.	.	.	8b-y	.
.	.	.	.	8a	.	.	.	8cc	.
.	.	.	.	8fJ	.	.	.	8aJ	.
=10	=10	=10	=10	=10	=10	=10	=10	=10	=10
4r	.	1r	.	4g	.	4r	.	1b-y	.
4B-y	E 'l	.	.	4f	-c'ho	4dd	E 'l	.	.
8GL	fo-	.	.	4g	den-	8b-yL	fo-	.	.
8A	.	.	.	.	.	8cc	.	.	.
8B-y	.	.	.	4d	-tr'ac-	8dd	.	.	.
8GJ	.	.	.	.	.	8b-yJ	.	.	.
4A	.	4r	.	2a	-col-	4cc	.	4f	-co,
4A	-c'ho	4c	E 'l	.	.	4cc	-c'ho	4f	E 'l
4B-y	den-	8dL	fo-	2d	-to.	4b-y	den-	8fL	fo-
.	.	8e	.	.	.	.	.	8g	.
4F	-tr'ac-	8f	.	.	.	4a	-tr'ac-	8a	.
.	.	8dJ	.	.	.	.	.	8fJ	.
=11	=11	=11	=11	=11	=11	=11	=11	=11	=11
2c	-col-	2e	.	0r	.	2cc	-col-	2g	.
2F	-to.	2f	-c'ho	.	.	4cc	-to,	2a	-c'ho
.	.	.	.	.	.	4ff	ho	.	.
1r	.	4g	den-	.	.	4dd	den-	4b-y	den-
.	.	4d	-tr'ac-	.	.	4ff	-tr'ac-	4dd	-tr'ac-
.	.	2a	-col-	.	.	2ee	-col-	2cc#X	-col-
=12	=12	=12	=12	=12	=12	=12	=12	=12	=12
1r	.	1d	-to.	4r	.	1ff#X	-to.	2dd	-to.
.	.	.	.	2a	Que-	.	.	.	.
.	.	.	.	.	.	.	.	2.a	Que-
.	.	.	.	4a	-st'a-	.	.	.	.
2.d	Que-	1r	.	4f#X	-vien	2r	.	.	.
.	.	.	.	2g	per-	.	.	4b-y	-st'a-
.	.	.	.	.	.	[2dd	Que-	2a	-vien,
4d	-st'a-	.	.	4f#X	-ch'A-	.	.	.	.
=13	=13	=13	=13	=13	=13	=13	=13	=13	=13
4BnX	-vien	2r	.	2g	-mo-	4dd]	.	4r	.
2c	per-	.	.	.	.	4ee-X	-st'a-	2gg	Que-
.	.	2.g	Que-	2G	-re,	2dd	-vien,	.	.
4BnX	-ch'A-	.	.	.	.	.	.	4gg	-st'a-
1c	-mo-	.	.	2r	.	4r	.	4ee	-vien
.	.	4a	-st'a-	.	.	2cc	Que-	2ff	per-
.	.	2g	-vien	[2c	Que-	.	.	.	.
.	.	.	.	.	.	4cc	-st'a-	4ee	-ch'A-
=14	=14	=14	=14	=14	=14	=14	=14	=14	=14
1F	-re	4.f	per-	4c]	.	4a	-vien	1ff	-mo-
.	.	.	.	4d	-st'a-	2b-y	per-	.	.
.	.	8f	-ch'A-	.	.	.	.	.	.
.	.	2f	-mor-	2c	-vien	.	.	.	.
.	.	.	.	.	.	4a	-ch'A-	.	.
1r	.	2.d	-re	4B-y	per-	2b-y	-mo-	2ff	-re
.	.	.	.	4B-y	-ch'A-	.	.	.	.
.	.	.	.	2b-y	-mo-	4f	-re	2dd	Ne
.	.	4B-y	Ne	.	.	4ff	Ne	.	.
=15	=15	=15	=15	=15	=15	=15	=15	=15	=15
0r	.	4f	la	4a	-re	4ff	la	4cc	la
.	.	4g	sua	4g	Ne	4dd	sua	2b-y	sua
.	.	4e	fron-	4g	la	2.cc	fron-	.	.
.	.	4f	-t'al-	4a	sua	.	.	2a	fron-
.	.	[1d	-ber-	4f#X	fron-	.	.	.	.
.	.	.	.	4g	-t'al-	4b-y	-t'al-	4g	-t'al-
.	.	.	.	2a	-ber-	[2a	-ber-	[2f#X	-ber-
=16	=16	=16	=16	=16	=16	=16	=16	=16	=16
0r	.	2d]	.	2d	-ga	2a]	.	2f#]	.
.	.	2d	-gha e	4r	.	2dd	-ga e	2a	-ga e
.	.	.	.	4fnXi	e	.	.	.	.
.	.	4c	nel	4g	nel	4ee	nel	4cc	nel
.	.	4A	mio	4a	mio	4ff	mio	4cc	mio
.	.	2B-y	pet-	2f	pet-	2dd	pet-	2b-y	pet-
=17	=17	=17	=17	=17	=17	=17	=17	=17	=17
2r	.	1F	-to,	2f	-to,	2cc	-to,	2a	-to,
2F	Ne	.	.	2a	Ne	2ff	Ne	2cc	Ne
4c	la	1r	.	4g	la	4ee	la	4cc	la
4d	sua	.	.	2f	sua	2dd	sua	4a	sua
4BnX	fron-	.	.	.	.	.	.	[2g	fron-
4c	-t'al-	.	.	[4e	fron-	[4cc	fron-	.	.
=18	=18	=18	=18	=18	=18	=18	=18	=18	=18
1.A	-ber-	0r	.	4e]	.	4cc]	.	4g]	.
.	.	.	.	4d	-t'al-	4a	-t'al-	4f	-t'al-
.	.	.	.	1c#X	-ber-	1a	-ber-	1e	-ber-
2A	-ga e	.	.	2c#i	-ga e	2a	-ga e	2ee	-ga e
=19	=19	=19	=19	=19	=19	=19	=19	=19	=19
4G	nel	1r	.	4d	nel	4bnX	nel	4gg	nel
4E	mio	.	.	4cnXi	mio	4cc	mio	4gg	mio
2F	pet-	.	.	2c	pet-	2a	pet-	2ff	pet-
1C	-to,	4r	.	2c	-to,	1g	-to,	1ee	-to,
.	.	4G	Né	.	.	.	.	.	.
.	.	2c	mai,	4r	.	.	.	.	.
.	.	.	.	4g	Né	.	.	.	.
=20	=20	=20	=20	=20	=20	=20	=20	=20	=20
0r	.	1r	.	1b-y	mai,	2r	.	4r	.
.	.	.	.	.	.	.	.	4dd	Né
.	.	.	.	.	.	4r	.	2ff	mai
.	.	.	.	.	.	4dd	Né	.	.
.	.	4r	.	2r	.	4ff	mai	2b-y	can-
.	.	4d	Né	.	.	4dd	can-	.	.
.	.	2f	mai	4r	.	4cc	-gia	4a	-gia
.	.	.	.	4d	Né	4b-X	ri-	4dd	ri-
=21	=21	=21	=21	=21	=21	=21	=21	=21	=21
2r	.	1r	.	2f	mai,	2a	-cet-	2cc	-cet-
4r	.	.	.	2r	.	2b-y	-to,	4dd	-to,
4G	Né	.	.	.	.	.	.	2dd	Né
2B-y	mai	2r	.	4r	.	4r	.	.	.
.	.	.	.	4d	Né	2dd	Né	4ff	mai,
2d	can-	2B-y	can-	[2f	mai	.	.	4r	.
.	.	.	.	.	.	4ff	mai,	4dd	Né
=22	=22	=22	=22	=22	=22	=22	=22	=22	=22
4c	-gia	4A	-gia	2f]	.	4r	.	2ff	mai
4B-y	ri-	4d	ri-	.	.	4dd	Né	.	.
2A	-cet-	2c	-cet-	2a	can-	4ff	mai	2cc	can-
.	.	.	.	.	.	4.ff	can-	.	.
2B-y	-to	2d	-to	4g	-gia	.	.	4.b-y	-gia
.	.	.	.	.	.	8ee	-gia	.	.
.	.	.	.	4f	ri-	4dd	ri-	.	.
.	.	.	.	.	.	.	.	8a	ri-
2r	.	2r	.	2e	-cet-	2cc	-cet-	2g	-cet-
=23	=23	=23	=23	=23	=23	=23	=23	=23	=23
2r	.	2r	.	2f	-to	1cc	-to	2a	-to
2F	Sì	2.c	Sì	2a	Sì	.	.	2cc	Sì
2E	ch'io	.	.	2g	ch'io	1r	.	4cc	ch'io
.	.	4c	ch'io	.	.	.	.	2cc	l'hab-
[2F	l'hab-	2c	l'hab-	[2a	l'hab-	.	.	.	.
.	.	.	.	.	.	.	.	4a	-bia
=24	=24	=24	=24	=24	=24	=24	=24	=24	=24
4F]	.	4f	-bia	4a]	.	2r	.	2dd	ne
4D	-bia	4f	ne	4a	-bia	.	.	.	.
2G	ne	2d	gl'oc-	2bnX	ne	2dd	el-	1g	gl'oc-
1C	gl'oc-	2e	-chi,	2cc	gl'oc-	2gg	-la	.	.
.	.	2c	Sì	4cc	-chi,	2ee-X	nel	2g	-chi,
.	.	.	.	[4g	Sì	.	.	.	.
=25	=25	=25	=25	=25	=25	=25	=25	=25	=25
2G	-chi,	2BnX	ch'io	4g]	.	2dd	co-	2r	.
.	.	.	.	4g	ch'io	.	.	.	.
2r	.	2.c	l'hab-	2e	l'hab-	2cc	-re,	2g	el-
1r	.	.	.	4a	-bia	1r	.	2cc	-la
.	.	4A	-bia	4a	ne-	.	.	.	.
.	.	2d	ne	2f	-gl'oc-	.	.	2a	nel
=26	=26	=26	=26	=26	=26	=26	=26	=26	=26
2r	.	2G	gl'oc-	1d	-chi,	1b-y	Sì	1g	co-
2G	Sì	2d	-chi,	.	.	.	.	.	.
2F#X	ch'io	2r	.	2r	.	2a	ch'io	1dd	-re,
[2G	l'hab-	2d	el-	2g	Sì	[2bnX	l'hab-	.	.
=27	=27	=27	=27	=27	=27	=27	=27	=27	=27
4G]	.	2g	-la	2e	ch'io	4b]	.	2r	.
4E	-bia	.	.	.	.	4cc	-bia	.	.
2A	ne-	2e	nel	2c	l'hab-	1a	ne	4r	.
.	.	.	.	.	.	.	.	4cc	Sì
[1D	-gl'oc-	1d	co-	2f	-bia	.	.	4a	ch'io
.	.	.	.	.	.	.	.	4.dd	l'hab-
.	.	.	.	2g	ne	[2g	gl'oc-	.	.
.	.	.	.	.	.	.	.	8cc	-bia
.	.	.	.	.	.	.	.	4b-y	ne
=28	=28	=28	=28	=28	=28	=28	=28	=28	=28
2D]	.	1.d	-re,	1a	gl'oc-	2g]	.	2a	gl'oc-
2D	-chi, el-	.	.	.	.	2f	-chi, el-	2a	-chi,
2G	-la	.	.	2g	-chi, el-	2b-X	-la	2r	.
2F	nel-	2A	el-	[2cc	-la	[2a	nel	2f	el-
=29	=29	=29	=29	=29	=29	=29	=29	=29	=29
0D	-co-	2.d	-la	2cc]	.	2a]	.	2ff	-la
.	.	.	.	2b-y	nel	2.g	co-	2dd	nel
.	.	4d	nel	.	.	.	.	.	.
.	.	1d	co-	1a	co-	.	.	1dd	co-
.	.	.	.	.	.	8f#XL	.	.	.
.	.	.	.	.	.	8eJ	.	.	.
.	.	.	.	.	.	2f#X	.	.	.
=30	=30	=30	=30	=30	=30	=30	=30	=30	=30
0GGl	-re.	0dl	-re.	0bnXl	-re.	0gl	-re.	0ddl	-re.
==	==	==	==	==	==	==	==	==	==
*-	*-	*-	*-	*-	*-	*-	*-	*-	*-
!!!system-decoration: [(s1)(s2)(s3)(s4)(s5)]
!!!RDF**kern: i = editorial accidental
!!!RDF**kern: l = terminal long
!!!ENC: Emiliano Ricciardi
!!!END: 2017
!!!EED: Deutsch, Catherine
!!!EEV: 2018/10/28
!!!YEC: Copyright 2018 Emiliano Ricciardi, All Rights Reserved
!!!ONB: Translated from MusicXML on 2018/10/28 and edited by Craig Stuart Sapp
